tools/download-figma-icons/icons/outlined-medium/smart-heater.svg

<svg width="24" height="24" viewBox="0 0 24 24" fill="none" xmlns="http://www.w3.org/2000/svg">
<path fill-rule="evenodd" clip-rule="evenodd" d="M6.57786 4.2285C8.03511 2.469 9.96111 1.5 11.9996 1.5C14.0389 1.5 15.9649 2.469 17.4221 4.2285C17.5706 4.40775 17.7844 4.5 18.0004 4.5C18.1691 4.5 18.3386 4.44375 18.4781 4.32825C18.7976 4.0635 18.8419 3.59025 18.5779 3.27225C16.8296 1.16175 14.4941 0 11.9996 0C9.50586 0 7.17036 1.16175 5.42211 3.27225C5.15811 3.59025 5.20236 4.0635 5.52186 4.32825C5.84211 4.59225 6.31311 4.54875 6.57786 4.2285ZM12 3.00024C10.6395 3.00024 9.36826 3.62949 8.42176 4.77174C8.15851 5.09049 8.20276 5.56374 8.52151 5.82849C8.84176 6.09324 9.31426 6.04749 9.57827 5.72874C10.2345 4.93599 11.094 4.50024 12 4.50024C12.906 4.50024 13.7655 4.93599 14.4218 5.72874C14.571 5.90799 14.7848 6.00024 15.0008 6.00024C15.1695 6.00024 15.3383 5.94399 15.4785 5.82849C15.7973 5.56374 15.8415 5.09049 15.5783 4.77174C14.6318 3.62949 13.3605 3.00024 12 3.00024ZM18 22.5002C18.414 22.5002 18.75 22.1642 18.75 21.7502V9.75024C18.75 9.33624 18.414 9.00024 18 9.00024C17.586 9.00024 17.25 9.33624 17.25 9.75024V21.7502C17.25 22.1642 17.586 22.5002 18 22.5002ZM12 22.5002C12.414 22.5002 12.75 22.1642 12.75 21.7502V9.75024C12.75 9.33624 12.414 9.00024 12 9.00024C11.586 9.00024 11.25 9.33624 11.25 9.75024V21.7502C11.25 22.1642 11.586 22.5002 12 22.5002ZM6 22.5002C6.414 22.5002 6.75 22.18 6.75 21.787V9.71349C6.75 9.32049 6.414 9.00024 6 9.00024C5.586 9.00024 5.25 9.32049 5.25 9.71349V21.787C5.25 22.18 5.586 22.5002 6 22.5002ZM9.75 20.2502H8.25V11.2502H9.75V20.2502ZM15.75 20.2502H14.25V11.2502H15.75V20.2502ZM20.25 20.2502H21C21.4147 20.2502 21.75 20.5855 21.75 21.0002C21.75 21.415 21.4147 21.7502 21 21.7502H20.25C20.25 22.9907 19.2405 24.0002 18 24.0002C16.7595 24.0002 15.75 22.9907 15.75 21.7502H14.25C14.25 22.9907 13.2405 24.0002 12 24.0002C10.7595 24.0002 9.75 22.9907 9.75 21.7502H8.25V21.787C8.25 23.0072 7.2405 24.0002 6 24.0002C4.7595 24.0002 3.75 23.0072 3.75 21.787V21.7502H3C2.58525 21.7502 2.25 21.415 2.25 21.0002C2.25 20.5855 2.58525 20.2502 3 20.2502H3.75V11.2502H3C2.58525 11.2502 2.25 10.915 2.25 10.5002C2.25 10.0855 2.58525 9.75024 3 9.75024H3.75V9.71349C3.75 8.49324 4.7595 7.50024 6 7.50024C7.2405 7.50024 8.25 8.49324 8.25 9.71349V9.75024H9.75C9.75 8.50974 10.7595 7.50024 12 7.50024C13.2405 7.50024 14.25 8.50974 14.25 9.75024H15.75C15.75 8.50974 16.7595 7.50024 18 7.50024C19.2405 7.50024 20.25 8.50974 20.25 9.75024H21C21.4147 9.75024 21.75 10.0855 21.75 10.5002C21.75 10.915 21.4147 11.2502 21 11.2502H20.25V20.2502Z" fill="black"/>
</svg>

<svg xmlns="http://www.w3.org/2000/svg" width="24" height="24" fill="none" viewBox="0 0 24 24"><path fill="currentColor" fill-rule="evenodd" d="M6.578 4.229C8.035 2.469 9.96 1.5 12 1.5s3.965.969 5.422 2.729a.75.75 0 0 0 1.056.1.75.75 0 0 0 .1-1.057C16.83 1.162 14.494 0 12 0S7.17 1.162 5.422 3.272a.75.75 0 1 0 1.156.957M12 3c-1.36 0-2.632.63-3.578 1.772a.75.75 0 0 0 1.157.957C10.234 4.936 11.093 4.5 12 4.5s1.765.436 2.422 1.229a.75.75 0 0 0 1.156-.957C14.632 3.629 13.361 3 12 3m6 19.5a.75.75 0 0 0 .75-.75v-12a.75.75 0 0 0-1.5 0v12c0 .414.336.75.75.75m-6 0a.75.75 0 0 0 .75-.75v-12a.75.75 0 0 0-1.5 0v12c0 .414.336.75.75.75m-6 0c.414 0 .75-.32.75-.713V9.713C6.75 9.32 6.414 9 6 9s-.75.32-.75.713v12.074c0 .393.336.713.75.713m3.75-2.25h-1.5v-9h1.5zm6 0h-1.5v-9h1.5zm4.5 0H21a.75.75 0 1 1 0 1.5h-.75c0 1.24-1.01 2.25-2.25 2.25s-2.25-1.01-2.25-2.25h-1.5c0 1.24-1.01 2.25-2.25 2.25s-2.25-1.01-2.25-2.25h-1.5v.037C8.25 23.007 7.24 24 6 24s-2.25-.993-2.25-2.213v-.037H3a.75.75 0 1 1 0-1.5h.75v-9H3a.75.75 0 1 1 0-1.5h.75v-.037C3.75 8.493 4.76 7.5 6 7.5s2.25.993 2.25 2.213v.037h1.5c0-1.24 1.01-2.25 2.25-2.25s2.25 1.01 2.25 2.25h1.5c0-1.24 1.01-2.25 2.25-2.25s2.25 1.01 2.25 2.25H21a.75.75 0 1 1 0 1.5h-.75z" clip-rule="evenodd"/></svg>
